Hatter-kde/actions/32/system-switch-user.svg

<svg xmlns="http://www.w3.org/2000/svg" viewBox="0 0 32 32">
  <defs
     id="defs3051">
    <style
       type="text/css"
       id="current-color-scheme">
      .ColorScheme-Text {
        color:#363636;
      }
      </style>
  </defs>
  <path
     style="fill:currentColor;fill-opacity:1;stroke:none" 
     id="path1011"
     d="m 18,8 c -1.285847,0 -2.416677,0.617761 -3.148438,1.560547 0.329275,0.112144 0.645954,0.250811 0.945313,0.417969 C 16.345252,9.381114 17.12515,9 18,9 c 1.656852,0 3,1.343147 3,3 0,1.398728 -0.960744,2.564273 -2.255859,2.896484 6.21e-4,0.03481 0.0059,0.06856 0.0059,0.103516 0,0.318095 -0.03235,0.627594 -0.08203,0.931641 C 20.557605,15.612437 22,13.980455 22,12 22,9.790862 20.209142,8 18,8 Z M 13,20 C 9.1189423,20 6,22.689616 6,26.435547 6.0033,26.962961 6.06906,27.487484 6.198034,28 H 7.3097713 18.972229 19.856521 C 19.985519,27.487484 19.997113,26.963414 20,26.436 20,22.690069 16.881058,20 13,20 Z m 0.027,0.992 c 3.813868,0 5.973,2.274365 5.973,5.444 -0.0011,0.174256 -0.01135,0.347611 -0.029,0.521 H 7.0290003 c -0.01765,-0.173389 -0.02741,-0.347197 -0.029,-0.521453 0,-3.169635 2.179706,-5.443547 5.9727347,-5.443547 z m 6.224205,-3.992043 c -0.25686,0 -0.509035,0.01606 -0.758429,0.04297 -0.12585,0.383697 -0.291433,0.751062 -0.492776,1.097662 0.410411,-0.09117 0.830028,-0.138336 1.251205,-0.140627 3.153826,1e-6 5.710515,2.46245 5.710515,5.500033 -9e-4,0.166968 -0.009,0.333807 -0.0264,0.500003 h -4.53029 c 0.108739,0.321192 0.202605,0.648801 0.269709,0.986334 l 5.134641,0.01367 C 25.93326,24.508838 25.99723,24.005434 26,23.499992 26,19.910121 22.97845,16.999953 19.251205,16.999954 Z M 13,11 c -2.209143,0 -3.9999997,1.790862 -3.9999997,4 0,2.20914 1.7908567,4.000001 3.9999997,4 2.209142,1e-6 4,-1.79086 4,-4 0,-2.209138 -1.790858,-4 -4,-4 z m 0,1 c 1.656852,0 3,1.343147 3,3 0,1.656854 -1.343148,3.000001 -3,3 -1.656852,1e-6 -3,-1.343146 -3,-3 0,-1.656853 1.343148,-3 3,-3 z m 3.027,-8.200001 c -2.034737,0 -3.684211,1.645485 -3.684211,3.675293 V 8.090575 L 10.736,6.388 10.123,7.130953 12.356,9.358 13,10 13.582,9.257328 15.646,7.03 15.002,6.388291 13.295,8.091 V 7.475 c 0,-1.449863 1.278621,-2.624917 2.732,-2.624917 1.453379,0 1.973,0.519045 1.973,1.968908 h 1 C 19,4.718823 17.883088,3.839078 16.027,3.799999 Z"
     class="ColorScheme-Text"
     />
</svg>

<?xml version="1.0" encoding="UTF-8"?>
<svg viewBox="0 0 32 32" xmlns="http://www.w3.org/2000/svg">
 <defs id="defs3051">
  <style id="current-color-scheme" type="text/css">.ColorScheme-Text {
        color:#363636;
      }</style>
 </defs>
 <path id="path1011" class="ColorScheme-Text" d="m18 8c-1.2858 0-2.4167 0.61776-3.1484 1.5605 0.32928 0.11214 0.64595 0.25081 0.94531 0.41797 0.54838-0.5974 1.3283-0.97852 2.2031-0.97852 1.6569 0 3 1.3431 3 3 0 1.3987-0.96074 2.5643-2.2559 2.8965 6.21e-4 0.03481 0.0059 0.06856 0.0059 0.10352 0 0.3181-0.03235 0.62759-0.08203 0.93164 1.8896-0.3192 3.332-1.9512 3.332-3.9316 0-2.2091-1.7909-4-4-4zm-5 12c-3.8811 0-7 2.6896-7 6.4355 0.0033 0.52741 0.06906 1.0519 0.19803 1.5645h13.658c0.129-0.51252 0.14059-1.0366 0.14348-1.564 0-3.7459-3.1189-6.436-7-6.436zm0.027 0.992c3.8139 0 5.973 2.2744 5.973 5.444-0.0011 0.17426-0.01135 0.34761-0.029 0.521h-11.942c-0.01765-0.17339-0.02741-0.3472-0.029-0.52145 0-3.1696 2.1797-5.4435 5.9727-5.4435zm6.2242-3.992c-0.25686 0-0.50904 0.01606-0.75843 0.04297-0.12585 0.3837-0.29143 0.75106-0.49278 1.0977 0.41041-0.09117 0.83003-0.13834 1.2512-0.14063 3.1538 1e-6 5.7105 2.4624 5.7105 5.5-9e-4 0.16697-9e-3 0.33381-0.0264 0.5h-4.5303c0.10874 0.32119 0.2026 0.6488 0.26971 0.98633l5.1346 0.01367c0.12388-0.49116 0.18785-0.99457 0.19062-1.5 0-3.5899-3.0216-6.5-6.7488-6.5zm-6.2512-6c-2.2091 0-4 1.7909-4 4 0 2.2091 1.7909 4 4 4 2.2091 1e-6 4-1.7909 4-4 0-2.2091-1.7909-4-4-4zm0 1c1.6569 0 3 1.3431 3 3 0 1.6569-1.3431 3-3 3-1.6569 1e-6 -3-1.3431-3-3 0-1.6569 1.3431-3 3-3zm3.027-8.2c-2.0347 0-3.6842 1.6455-3.6842 3.6753v0.61528l-1.6068-1.7026-0.613 0.74295 2.233 2.227 0.644 0.642 0.582-0.74267 2.064-2.2273-0.644-0.64171-1.707 1.7027v-0.616c0-1.4499 1.2786-2.6249 2.732-2.6249s1.973 0.51904 1.973 1.9689h1c0-2.1002-1.1169-2.9799-2.973-3.019z" fill="currentColor"/>
</svg>
